findly-builder/apps/searchassist/src/assets/images/pricing-plan/new-plan-pricing-img/pricing-plan-standard.svg

<svg width="80" height="80" viewBox="0 0 80 80" fill="none" xmlns="http://www.w3.org/2000/svg">
<rect width="80" height="80" rx="8" fill="#E6F8EF"/>
<g clip-path="url(#clip0_105_81490)">
<path d="M42.7886 13.5068C42.8225 13.5411 42.8511 13.5789 42.8789 13.621L43.435 14.4368L43.9009 15.1156C44.1351 15.4598 44.1652 15.9127 44.0221 16.4121C43.9767 16.567 43.9165 16.7278 43.838 16.8895C43.6702 17.2427 43.4272 17.6077 43.1179 17.9638C43.0274 18.0729 42.929 18.1758 42.8254 18.2822C42.5435 18.571 42.2179 18.8508 41.8601 19.1103C41.8119 19.146 41.7636 19.1817 41.7119 19.2122C41.6436 19.2574 41.5795 19.3036 41.5112 19.3488C41.1553 19.5768 40.7978 19.7681 40.4475 19.9243C40.3127 19.9833 40.1787 20.0379 40.0465 20.0838C39.6045 20.2441 39.1759 20.3387 38.7868 20.373C38.5989 20.3801 38.4303 20.3821 38.2696 20.3674C37.756 20.3216 37.3445 20.1325 37.1103 19.7883L36.6513 19.1201L36.083 18.2972L36.0587 18.2603C35.4458 17.278 36.4237 15.477 38.2763 14.2016C40.072 12.96 42.0412 12.6701 42.7886 13.5068Z" fill="#FFCF2D"/>
<path d="M42.7886 13.506C42.8225 13.5403 42.8512 13.5781 42.8789 13.6202L43.435 14.436C43.4259 14.5253 43.4123 14.6137 43.3935 14.7055C43.3577 14.8805 43.3017 15.0651 43.2265 15.2548L44.0212 16.4157C43.9759 16.5705 43.9157 16.7314 43.8371 16.8931L43.0181 15.6953C42.8233 16.0475 42.5734 16.402 42.2729 16.7371L43.1171 17.9673C43.0265 18.0764 42.9281 18.1794 42.8245 18.2858L41.9769 17.0503C41.6853 17.3416 41.3607 17.617 41.0082 17.8731L41.8593 19.1139C41.811 19.1496 41.7628 19.1853 41.7111 19.2157C41.6427 19.261 41.5787 19.3071 41.5103 19.3524L40.6592 18.1116C40.3086 18.3361 39.9546 18.5326 39.599 18.6923L40.4423 19.927C40.3074 19.986 40.1735 20.0406 40.0413 20.0865L39.2015 18.8571C38.8566 18.9871 38.5136 19.0856 38.1786 19.1446C38.1078 19.1575 38.037 19.1703 37.9626 19.1779L38.779 20.366C38.599 20.3793 38.4303 20.3813 38.2696 20.3666L37.4784 19.211C37.1725 19.2168 36.8922 19.1868 36.647 19.1183L36.0831 18.2964L36.0588 18.2595C36.3678 18.6829 36.9864 18.8596 37.8056 18.7675C38.6904 18.6659 39.6877 18.2592 40.6136 17.6236C41.5394 16.9881 42.2738 16.1994 42.6858 15.4085C43.0757 14.6587 43.1235 14.003 42.8224 13.5631L42.7886 13.506Z" fill="#9C3C82"/>
<path d="M40.8294 13.3701C40.0756 13.4984 39.2261 13.8715 38.4274 14.4192C36.7081 15.5989 35.8142 17.1891 36.3964 18.033C36.6939 18.4676 37.3171 18.6225 38.1479 18.4735C38.88 18.3407 39.711 17.9683 40.4896 17.4303C41.6961 16.6014 42.4928 15.5748 42.6629 14.7435C42.7354 14.3892 42.6959 14.0711 42.5198 13.8208C42.2257 13.3914 41.6261 13.2323 40.8294 13.3701ZM42.2147 14.0228C42.6632 14.6752 41.7728 16.0929 40.2788 17.1273C38.7856 18.1573 37.1422 18.4773 36.698 17.8258C36.5861 17.6616 36.5583 17.4416 36.6111 17.1835C36.6577 16.956 36.7638 16.7042 36.9329 16.4334C37.3011 15.8342 37.9079 15.2245 38.633 14.7256C39.3686 14.2198 40.1541 13.87 40.8389 13.7458C40.8582 13.7406 40.8722 13.7389 40.8905 13.7381C41.5281 13.6224 42.0151 13.7312 42.2147 14.0228Z" fill="#9C3C82"/>
<path d="M41.0487 14.4303L40.534 14.7899C39.9839 14.7001 39.4419 14.7488 39.2415 14.9949C39.1747 15.077 39.0504 15.3068 39.3362 15.6433C39.4969 15.8357 39.5694 16.0147 39.5157 16.0994C39.4364 16.2199 38.9972 16.3443 37.8532 16.0236C37.759 15.9952 37.6608 16.0526 37.6324 16.147C37.604 16.2415 37.6612 16.3398 37.7554 16.3682C37.8889 16.4046 38.0181 16.4402 38.1403 16.4652L37.8641 16.6594C37.8272 16.6837 37.8008 16.7239 37.791 16.772C37.7713 16.8683 37.8337 16.9631 37.9297 16.9828C37.9778 16.9926 38.0302 16.9805 38.0671 16.9562L38.6353 16.5574C39.2553 16.6387 39.6506 16.5509 39.8171 16.2933C39.965 16.0592 39.8923 15.748 39.6108 15.4124C39.5231 15.3078 39.5051 15.2403 39.5235 15.2167C39.5842 15.1425 39.8195 15.0813 40.2135 15.1118C40.5943 15.1396 40.9905 15.248 41.2737 15.3971C41.3147 15.4192 41.3636 15.4246 41.4074 15.4108C41.4511 15.397 41.4897 15.3638 41.5118 15.3228C41.5197 15.3062 41.5277 15.2896 41.5304 15.2764C41.5456 15.2021 41.5119 15.1222 41.4378 15.0843C41.3071 15.0119 41.1553 14.9535 40.9974 14.903L41.2526 14.7227C41.2894 14.6984 41.3158 14.6582 41.3257 14.6101L41.3266 14.6057C41.3364 14.5576 41.3235 14.5094 41.2993 14.4725C41.2706 14.4347 41.2305 14.4083 41.1825 14.3984C41.138 14.3939 41.0908 14.4025 41.0487 14.4303Z" fill="#9C3C82"/>
</g>
<g clip-path="url(#clip1_105_81490)">
<path d="M41.343 53.0722C49.1729 53.0722 55.5204 47.7954 55.5204 41.2861C55.5204 34.7768 49.1729 29.5 41.343 29.5C33.513 29.5 27.1655 34.7768 27.1655 41.2861C27.1655 47.7954 33.513 53.0722 41.343 53.0722Z" fill="#FFCF2D"/>
<path d="M43.423 29.8351C43.423 29.8351 47.0092 26.2086 49.7347 26.3518C52.4602 26.4949 51.6617 34.979 51.6617 34.979L43.423 29.8351ZM57.6721 43.5442C57.8825 43.2102 58.0499 42.6138 58.0499 41.2777C58.0499 40.0848 57.9064 39.3976 57.6721 39.0254C57.194 38.262 56.0464 38.0711 54.1338 37.4031V45.1666C56.0464 44.4986 57.194 44.3077 57.6721 43.5442ZM27.835 38.1379C27.835 38.1379 25.6354 39.14 25.6833 40.7623C25.7311 42.3847 29.0304 43.2913 29.0304 43.2913L27.835 38.1379ZM35.629 54.7911H34.3858C33.0374 54.7911 31.9472 53.7032 31.9472 52.3576V49.3037H38.0676V52.3576C38.0676 53.7032 36.9774 54.7911 35.629 54.7911ZM48.7784 54.7911H47.5352C46.1868 54.7911 45.0965 53.7032 45.0965 52.3576V49.3037H51.217V52.3576C51.217 53.7032 50.1268 54.7911 48.7784 54.7911Z" fill="#FFCF2D"/>
<path d="M33.9554 33.7253C33.8407 33.7253 33.7259 33.668 33.6542 33.563C33.5442 33.4008 33.5873 33.1765 33.7546 33.0668C33.7929 33.0429 34.7348 32.4226 36.2793 31.8882C37.7042 31.3967 39.9324 30.8909 42.4523 31.2774C42.6484 31.306 42.7823 31.4921 42.7536 31.683C42.7249 31.8786 42.5384 32.0122 42.3471 31.9836C39.9802 31.6209 37.8811 32.0933 36.5375 32.5562C35.0743 33.0572 34.161 33.6537 34.1515 33.6632C34.0941 33.7062 34.0272 33.7253 33.9554 33.7253Z" fill="#5B2448"/>
<path d="M47.2339 52.2094C47.2004 52.1092 47.0904 52.0567 46.99 52.0949C46.378 52.3144 45.7516 52.5005 45.1156 52.6437C45.13 52.7725 45.1539 52.8966 45.1921 53.0206C45.8472 52.8679 46.4927 52.6818 47.1239 52.4528C47.2195 52.4194 47.2674 52.3096 47.2339 52.2094ZM35.8585 52.3096C35.8202 52.4098 35.8728 52.5148 35.9732 52.553C36.614 52.7868 37.2738 52.9777 37.9432 53.1256C37.9815 53.0063 38.015 52.8822 38.0341 52.7582C37.379 52.6103 36.7335 52.4242 36.1023 52.1951C36.0019 52.1569 35.8967 52.2094 35.8585 52.3096ZM55.3196 37.7941C55.1665 37.7464 55.0088 37.6939 54.8462 37.6414C55.3004 38.7914 55.5443 40.013 55.5443 41.287C55.5443 42.5563 55.3004 43.7778 54.8462 44.9278C55.0088 44.8753 55.1665 44.8228 55.3196 44.7751C55.7212 43.6585 55.9268 42.4895 55.9268 41.287C55.9268 40.0845 55.7164 38.9155 55.3196 37.7941ZM47.8985 27.8356C47.8316 27.8356 47.7694 27.8022 47.7312 27.7401C47.6786 27.6495 47.7073 27.5302 47.8029 27.4777C48.3719 27.1484 49.0222 26.9719 49.6438 26.9767C49.749 26.9767 49.8351 27.0625 49.8303 27.1723C49.8303 27.2773 49.7442 27.3584 49.639 27.3584H49.6342C49.0844 27.3536 48.4962 27.5111 47.9894 27.8069C47.9607 27.826 47.9272 27.8356 47.8985 27.8356ZM46.9087 28.3986C46.8466 28.3986 46.7844 28.3652 46.7462 28.308C46.6888 28.2173 46.7175 28.1028 46.8035 28.0455C46.9087 27.9787 47.0139 27.9167 47.1382 27.8451C47.2291 27.7926 47.3486 27.826 47.4012 27.9167C47.4538 28.0073 47.4204 28.1266 47.3295 28.1791C47.21 28.2459 47.1096 28.308 47.0091 28.37C46.9805 28.3891 46.9422 28.3986 46.9087 28.3986ZM51.8433 35.1697H51.8672C51.9629 35.1697 52.0442 35.0981 52.0537 35.0027C52.0968 34.6496 52.1255 34.1724 52.1494 33.657C52.0298 33.5425 51.9055 33.4232 51.7812 33.3135C51.7573 33.9433 51.7238 34.5398 51.676 34.9549C51.6616 35.0599 51.7381 35.1554 51.8433 35.1697Z" fill="white"/>
<path d="M50.0337 40.0507C50.5619 40.0458 50.9851 39.5057 50.979 38.8442C50.9729 38.1827 50.5398 37.6504 50.0116 37.6553C49.4835 37.6601 49.0602 38.2003 49.0663 38.8618C49.0724 39.5232 49.5055 40.0555 50.0337 40.0507Z" fill="#5B2448"/>
</g>
<g clip-path="url(#clip2_105_81490)">
<path d="M18.2205 61.9922H59.1048V68.6649H18.2205V61.9922Z" fill="#21A0AA"/>
<path d="M59.2481 61.8206C59.204 61.7876 59.1599 61.7656 59.1048 61.7656H18.2205C18.0992 61.7656 18 61.8646 18 61.9855V68.6472C18 68.7681 18.0992 68.867 18.2205 68.867H59.1048C59.2261 68.867 59.3253 68.7681 59.3253 68.6472V61.9965C59.3253 61.9305 59.2922 61.8646 59.2481 61.8206ZM58.8844 68.4383H18.4409V62.2163H58.8844V68.4383Z" fill="#5B2448"/>
<path d="M59.1048 64.3694H51.9509C51.8296 64.3694 51.7304 64.2705 51.7304 64.1495C51.7304 64.0286 51.8296 63.9297 51.9509 63.9297H59.1048C59.2261 63.9297 59.3253 64.0286 59.3253 64.1495C59.3253 64.2705 59.2261 64.3694 59.1048 64.3694ZM29.2435 66.1832L18.2205 66.0403C18.0992 66.0403 18 65.9414 18 65.8205C18 65.6995 18.0992 65.6006 18.2205 65.6006L29.2435 65.7435C29.3647 65.7435 29.4639 65.8424 29.4639 65.9634C29.4639 66.0843 29.3647 66.1832 29.2435 66.1832Z" fill="#5B2448"/>
<path d="M33.0795 61.5977H44.6316V68.8749H33.0795V61.5977Z" fill="#66B0F0"/>
<path d="M20.7227 55.375H61.607V62.0477H20.7227V55.375Z" fill="#21A0AA"/>
<path d="M61.607 55.1562H20.7227C20.6014 55.1562 20.5022 55.2552 20.5022 55.3761V62.0378C20.5022 62.1037 20.5353 62.1697 20.5794 62.2027C20.6124 62.2357 20.6675 62.2576 20.7227 62.2576H61.607C61.7283 62.2576 61.8275 62.1587 61.8275 62.0378V55.3761C61.8275 55.2552 61.7283 55.1562 61.607 55.1562ZM61.3866 61.8179H20.9431V55.596H61.3866V61.8179Z" fill="#5B2448"/>
<path d="M61.607 57.7522H54.4531C54.3318 57.7522 54.2326 57.6533 54.2326 57.5324C54.2326 57.4114 54.3318 57.3125 54.4531 57.3125H61.607C61.7283 57.3125 61.8275 57.4114 61.8275 57.5324C61.8275 57.6533 61.7283 57.7522 61.607 57.7522ZM31.7457 59.566L20.7227 59.4231C20.6014 59.4231 20.5022 59.3242 20.5022 59.2033C20.5022 59.0824 20.6014 58.9834 20.7227 58.9834L31.7457 59.1263C31.8669 59.1263 31.9661 59.2253 31.9661 59.3462C31.9661 59.4781 31.8669 59.566 31.7457 59.566Z" fill="#5B2448"/>
<path d="M35.5817 55.1562H47.1338V62.1587H35.5817V55.1562Z" fill="#66B0F0"/>
<path d="M47.3212 62.2678H35.5817C35.4604 62.2678 35.3612 62.1689 35.3612 62.048C35.3612 61.9271 35.4604 61.8281 35.5817 61.8281H47.3212C47.4424 61.8281 47.5416 61.9271 47.5416 62.048C47.5416 62.1689 47.4424 62.2678 47.3212 62.2678Z" fill="#5B2448"/>
</g>
<defs>
<clipPath id="clip0_105_81490">
<rect width="8.19448" height="8.26864" fill="white" transform="translate(35.3196 20.0273) rotate(-78.4341)"/>
</clipPath>
<clipPath id="clip1_105_81490">
<rect width="32.6296" height="28.7734" fill="white" transform="translate(25.5637 26.2031)"/>
</clipPath>
<clipPath id="clip2_105_81490">
<rect width="43.8275" height="14.0159" fill="white" transform="translate(18 54.9805)"/>
</clipPath>
</defs>
</svg>

<svg width="80" height="80" fill="none" xmlns="http://www.w3.org/2000/svg"><rect width="80" height="80" rx="8" fill="#E6F8EF"/><g clip-path="url(#a)"><path d="M42.789 13.507a.736.736 0 0 1 .09.114l.556.816.466.679c.234.344.264.797.121 1.296a3.072 3.072 0 0 1-.184.478 4.82 4.82 0 0 1-.72 1.074 7.534 7.534 0 0 1-1.406 1.248c-.068.045-.133.092-.2.137-.357.228-.714.42-1.065.575a5.538 5.538 0 0 1-.4.16 5.03 5.03 0 0 1-1.26.289c-.188.007-.357.01-.517-.006-.514-.045-.926-.235-1.16-.579l-.459-.668-.568-.823-.024-.037c-.613-.982.365-2.783 2.217-4.058 1.796-1.242 3.765-1.532 4.513-.695Z" fill="#FFCF2D"/><path d="M42.789 13.506a.73.73 0 0 1 .09.114l.556.816c-.01.09-.023.178-.041.27a3.29 3.29 0 0 1-.167.549l.794 1.16a3.056 3.056 0 0 1-.184.478l-.819-1.198a5.715 5.715 0 0 1-.745 1.042l.844 1.23a5.47 5.47 0 0 1-.292.319l-.848-1.236a8.138 8.138 0 0 1-.969.823l.851 1.24a1.505 1.505 0 0 1-.148.103c-.068.045-.132.091-.2.136l-.852-1.24c-.35.224-.704.42-1.06.58l.843 1.235a5.557 5.557 0 0 1-.4.16l-.84-1.23a5.74 5.74 0 0 1-1.24.32l.817 1.189a3.1 3.1 0 0 1-.51 0l-.79-1.155a2.904 2.904 0 0 1-.832-.093l-.564-.822-.024-.037c.309.424.927.6 1.747.508.884-.101 1.882-.508 2.808-1.143.925-.636 1.66-1.425 2.072-2.215.39-.75.438-1.406.136-1.846l-.033-.057Z" fill="#9C3C82"/><path d="M40.83 13.37c-.754.128-1.604.502-2.403 1.05-1.719 1.179-2.613 2.77-2.03 3.613.297.435.92.59 1.75.44.733-.132 1.564-.505 2.343-1.043 1.206-.829 2.003-1.855 2.173-2.687.072-.354.033-.672-.143-.922-.294-.43-.894-.589-1.69-.45Zm1.385.653c.448.652-.442 2.07-1.936 3.104-1.493 1.03-3.137 1.35-3.581.699-.112-.164-.14-.384-.087-.643.047-.227.153-.479.322-.75.368-.599.975-1.208 1.7-1.707.736-.506 1.521-.856 2.206-.98a.216.216 0 0 1 .052-.008c.637-.116 1.124-.007 1.324.285Z" fill="#9C3C82"/><path d="m41.049 14.43-.515.36c-.55-.09-1.092-.041-1.292.205-.067.082-.192.312.094.648.16.193.233.372.18.456-.08.12-.519.245-1.663-.075a.18.18 0 0 0-.098.344c.134.037.263.072.385.097l-.276.194a.175.175 0 0 0-.073.113.179.179 0 0 0 .276.184l.568-.399c.62.082 1.016-.006 1.182-.264.148-.234.075-.545-.206-.88-.088-.105-.106-.173-.087-.196.06-.075.295-.136.69-.105.38.028.776.136 1.06.285.04.022.09.028.133.014a.186.186 0 0 0 .105-.088c.008-.017.016-.033.018-.047a.175.175 0 0 0-.092-.192 2.474 2.474 0 0 0-.44-.181l.255-.18a.176.176 0 0 0 .073-.113v-.004a.18.18 0 0 0-.027-.133.194.194 0 0 0-.117-.075.203.203 0 0 0-.133.032Z" fill="#9C3C82"/></g><g clip-path="url(#b)"><path d="M41.343 53.072c7.83 0 14.177-5.277 14.177-11.786 0-6.51-6.347-11.786-14.177-11.786-7.83 0-14.178 5.277-14.178 11.786 0 6.51 6.348 11.786 14.178 11.786Z" fill="#FFCF2D"/><path d="M43.423 29.835s3.586-3.626 6.312-3.483c2.725.143 1.927 8.627 1.927 8.627l-8.239-5.144Zm14.25 13.71c.21-.335.377-.931.377-2.267 0-1.193-.144-1.88-.378-2.253-.478-.763-1.626-.954-3.538-1.622v7.764c1.912-.668 3.06-.86 3.538-1.623Zm-29.838-5.407s-2.2 1.002-2.152 2.624c.048 1.623 3.347 2.53 3.347 2.53l-1.195-5.154Zm7.794 16.653h-1.243a2.434 2.434 0 0 1-2.439-2.433v-3.054h6.12v3.054a2.434 2.434 0 0 1-2.438 2.433Zm13.15 0h-1.244a2.434 2.434 0 0 1-2.438-2.433v-3.054h6.12v3.054a2.434 2.434 0 0 1-2.439 2.433Z" fill="#FFCF2D"/><path d="M33.955 33.725a.367.367 0 0 1-.3-.162.356.356 0 0 1 .1-.496c.038-.024.98-.644 2.524-1.179 1.425-.491 3.653-.997 6.173-.61a.36.36 0 0 1 .302.405.36.36 0 0 1-.407.3c-2.367-.362-4.466.11-5.81.573-1.463.501-2.376 1.098-2.386 1.107a.32.32 0 0 1-.196.062Z" fill="#5B2448"/><path d="M47.234 52.21a.186.186 0 0 0-.244-.115c-.612.22-1.238.406-1.874.549.014.129.038.253.076.377a16.92 16.92 0 0 0 1.932-.568c.095-.034.143-.143.11-.244Zm-11.376.1c-.038.1.015.205.115.243.641.234 1.3.425 1.97.573a2.42 2.42 0 0 0 .091-.368 15.96 15.96 0 0 1-1.932-.563.188.188 0 0 0-.243.115ZM55.32 37.794c-.154-.048-.311-.1-.474-.153a9.871 9.871 0 0 1 0 7.287c.163-.053.32-.105.474-.153.401-1.117.607-2.285.607-3.488 0-1.203-.21-2.371-.607-3.493Zm-7.422-9.958a.194.194 0 0 1-.167-.096.19.19 0 0 1 .072-.262 3.671 3.671 0 0 1 1.84-.501c.106 0 .192.085.187.195a.188.188 0 0 1-.191.186h-.005a3.27 3.27 0 0 0-1.645.449.17.17 0 0 1-.09.029Zm-.99.563a.199.199 0 0 1-.162-.091.191.191 0 0 1 .057-.262 8.9 8.9 0 0 1 .335-.2.195.195 0 0 1 .263.07c.053.091.02.21-.072.263-.119.067-.22.129-.32.191a.188.188 0 0 1-.1.029Zm4.935 6.77h.024a.187.187 0 0 0 .187-.166c.043-.353.072-.83.095-1.346-.12-.114-.243-.234-.368-.343-.024.63-.057 1.226-.105 1.64a.194.194 0 0 0 .167.216Z" fill="#fff"/><path d="M50.034 40.05c.528-.004.951-.544.945-1.206-.006-.661-.44-1.194-.967-1.189-.529.005-.952.545-.946 1.207.006.661.44 1.194.968 1.189Z" fill="#5B2448"/></g><g clip-path="url(#c)"><path d="M18.22 61.992h40.885v6.673H18.22v-6.673Z" fill="#21A0AA"/><path d="M59.248 61.82a.232.232 0 0 0-.143-.054H18.22a.22.22 0 0 0-.221.22v6.661c0 .121.1.22.22.22h40.885a.22.22 0 0 0 .22-.22v-6.65a.26.26 0 0 0-.077-.176Zm-.364 6.618H18.441v-6.222h40.443v6.222Z" fill="#5B2448"/><path d="M59.105 64.37H51.95a.22.22 0 0 1-.22-.22.22.22 0 0 1 .22-.22h7.154a.22.22 0 0 1 .22.22c0 .12-.099.22-.22.22Zm-29.861 1.813L18.22 66.04a.22.22 0 0 1-.221-.22c0-.12.1-.22.22-.22l11.024.144a.22.22 0 0 1 .22.22c0 .12-.1.22-.22.22Z" fill="#5B2448"/><path d="M33.08 61.598h11.552v7.277H33.08v-7.277Z" fill="#66B0F0"/><path d="M20.723 55.375h40.884v6.673H20.723v-6.673Z" fill="#21A0AA"/><path d="M61.607 55.156H20.723a.22.22 0 0 0-.22.22v6.662c0 .066.032.132.076.165a.21.21 0 0 0 .144.055h40.884a.22.22 0 0 0 .22-.22v-6.662c0-.12-.099-.22-.22-.22Zm-.22 6.662H20.943v-6.222h40.444v6.222Z" fill="#5B2448"/><path d="M61.607 57.752h-7.154a.22.22 0 0 1-.22-.22c0-.12.099-.22.22-.22h7.154a.22.22 0 0 1 .22.22.22.22 0 0 1-.22.22Zm-29.861 1.814-11.023-.143a.22.22 0 0 1-.22-.22c0-.12.098-.22.22-.22l11.023.143a.22.22 0 0 1 .22.22c0 .132-.1.22-.22.22Z" fill="#5B2448"/><path d="M35.582 55.156h11.552v7.003H35.582v-7.003Z" fill="#66B0F0"/><path d="M47.321 62.268h-11.74a.22.22 0 0 1-.22-.22c0-.12.1-.22.22-.22h11.74a.22.22 0 0 1 .22.22c0 .12-.099.22-.22.22Z" fill="#5B2448"/></g><defs><clipPath id="a"><path fill="#fff" transform="rotate(-78.434 29.93 -11.626)" d="M0 0h8.194v8.269H0z"/></clipPath><clipPath id="b"><path fill="#fff" transform="translate(25.564 26.203)" d="M0 0h32.63v28.773H0z"/></clipPath><clipPath id="c"><path fill="#fff" transform="translate(18 54.98)" d="M0 0h43.828v14.016H0z"/></clipPath></defs></svg>
